svgs/light/table.svg

<svg xmlns="http://www.w3.org/2000/svg" viewBox="0 0 512 512"><!--! Font Awesome Pro 6.5.1 by @fontawesome - https://fontawesome.com License - https://fontawesome.com/license (Commercial License) Copyright 2023 Fonticons, Inc. --><path d="M64 64C46.3 64 32 78.3 32 96l0 64 448 0V96c0-17.7-14.3-32-32-32L64 64zM32 192l0 112 208 0 0-112L32 192zm240 0l0 112H480l0-112-208 0zM240 336L32 336l0 80c0 17.7 14.3 32 32 32l176 0V336zm32 112H448c17.7 0 32-14.3 32-32V336H272V448zM0 96C0 60.7 28.7 32 64 32l384 0c35.3 0 64 28.7 64 64l0 320c0 35.3-28.7 64-64 64L64 480c-35.3 0-64-28.7-64-64L0 96z"/></svg>

<svg xmlns="http://www.w3.org/2000/svg" viewBox="0 0 512 512"><!--! Font Awesome Pro 6.1.1 by @fontawesome - https://fontawesome.com License - https://fontawesome.com/license (Commercial License) Copyright 2022 Fonticons, Inc. --><path d="M0 96C0 60.65 28.65 32 64 32H448C483.3 32 512 60.65 512 96V416C512 451.3 483.3 480 448 480H64C28.65 480 0 451.3 0 416V96zM32 96V160H480V96C480 78.33 465.7 64 448 64H64C46.33 64 32 78.33 32 96zM32 192V304H240V192H32zM272 192V304H480V192H272zM240 336H32V416C32 433.7 46.33 448 64 448H240V336zM448 448C465.7 448 480 433.7 480 416V336H272V448H448z"/></svg>
